images/logo.svg

<svg width="173" height="33" viewBox="0 0 173 33" fill="none" xmlns="http://www.w3.org/2000/svg">
<path d="M4.19039 32.6066L6.59219 25.7282H16.8126L19.2017 32.6066H23.3921L13.9765 6.61607H9.41559L0 32.6066H4.19039ZM7.74199 22.4287L11.6002 11.337H11.8046L15.6628 22.4287H7.74199Z" fill="white"/>
<path d="M26.8638 32.6066H30.6837V20.7027C30.6837 18.1519 32.6639 16.3118 35.3723 16.3118C36.1644 16.3118 37.0587 16.4514 37.3653 16.5402V12.9107C36.9821 12.8599 36.2283 12.8218 35.7428 12.8218C33.4432 12.8218 31.4758 14.1163 30.7604 16.2102H30.556V13.1137H26.8638V32.6066Z" fill="white"/>
<path d="M48.2342 33C53.766 33 57.3815 28.9771 57.3815 22.949C57.3815 16.8828 53.766 12.8599 48.2342 12.8599C42.7023 12.8599 39.0868 16.8828 39.0868 22.949C39.0868 28.9771 42.7023 33 48.2342 33ZM48.2469 29.8146C44.6314 29.8146 42.9451 26.68 42.9451 22.9363C42.9451 19.2052 44.6314 16.0326 48.2469 16.0326C51.8369 16.0326 53.5232 19.2052 53.5232 22.9363C53.5232 26.68 51.8369 29.8146 48.2469 29.8146Z" fill="white"/>
<path d="M74.0759 24.5226C74.0887 27.8349 71.6103 29.4085 69.464 29.4085C67.1005 29.4085 65.4652 27.708 65.4652 25.0556V13.1137H61.6453V25.5125C61.6453 30.3476 64.3154 32.8604 68.0842 32.8604C71.0353 32.8604 73.0411 31.3121 73.9482 29.2309H74.1526V32.6066H77.9086V13.1137H74.0759V24.5226Z" fill="white"/>
<path d="M86.8611 21.0327C86.8611 17.9235 88.7774 16.1468 91.4347 16.1468C94.0282 16.1468 95.5996 17.8346 95.5996 20.6647V32.6066H99.4195V20.2078C99.4195 15.3853 96.7494 12.8599 92.7378 12.8599C89.7867 12.8599 87.8576 14.2178 86.9505 16.2864H86.7078V13.1137H83.0412V32.6066H86.8611V21.0327Z" fill="white"/>
<path d="M111.888 32.9873C115.466 32.9873 116.871 30.8172 117.561 29.5735H117.88V32.6066H121.611V6.61607H117.791V16.2737H117.561C116.871 15.0681 115.568 12.8599 111.914 12.8599C107.174 12.8599 103.687 16.5783 103.687 22.8982C103.687 29.2055 107.123 32.9873 111.888 32.9873ZM112.732 29.7512C109.321 29.7512 107.545 26.7689 107.545 22.8601C107.545 18.9895 109.282 16.0833 112.732 16.0833C116.066 16.0833 117.855 18.7864 117.855 22.8601C117.855 26.9592 116.028 29.7512 112.732 29.7512Z" fill="white"/>
<path d="M126.6 1.0491H129.343V8.78195H130.399V1.0491H133.141V0.118446H126.6V1.0491Z" fill="white"/>
<path d="M135.64 4.87322C135.64 3.73952 136.368 3.09653 137.36 3.09653C138.306 3.09653 138.876 3.68876 138.876 4.72093V8.78195H139.881V4.65325C139.881 2.98231 138.987 2.19972 137.65 2.19972C136.619 2.19972 136.032 2.62697 135.725 3.29958H135.64V0.118446H134.635V8.78195H135.64V4.87322Z" fill="white"/>
<path d="M144.463 8.91732C145.791 8.91732 146.762 8.2574 147.069 7.27599L146.098 7.00526C145.842 7.68209 145.25 8.02051 144.463 8.02051C143.283 8.02051 142.47 7.2633 142.423 5.87156H147.171V5.44853C147.171 3.02884 145.723 2.19972 144.36 2.19972C142.589 2.19972 141.413 3.58723 141.413 5.5839C141.413 7.58057 142.572 8.91732 144.463 8.91732ZM142.423 5.00859C142.491 3.99756 143.211 3.09653 144.36 3.09653C145.451 3.09653 146.149 3.90873 146.149 5.00859H142.423Z" fill="white"/>
<path d="M157.932 0.118446V5.77003C157.932 7.0391 157.055 7.95283 155.599 7.95283C154.142 7.95283 153.265 7.0391 153.265 5.77003V0.118446H152.209V5.85463C152.209 7.63133 153.546 8.93424 155.599 8.93424C157.651 8.93424 158.988 7.63133 158.988 5.85463V0.118446H157.932Z" fill="white"/>
<path d="M161.284 8.84964C161.705 8.84964 162.05 8.50699 162.05 8.08819C162.05 7.6694 161.705 7.32675 161.284 7.32675C160.862 7.32675 160.517 7.6694 160.517 8.08819C160.517 8.50699 160.862 8.84964 161.284 8.84964Z" fill="white"/>
<path d="M168.76 2.28432H169.782C169.735 0.977182 168.521 0 166.835 0C165.165 0 163.854 0.964492 163.854 2.41969C163.854 3.58723 164.705 4.28099 166.068 4.67017L167.141 4.97475C168.061 5.22856 168.879 5.55006 168.879 6.41302C168.879 7.3606 167.959 7.98667 166.75 7.98667C165.71 7.98667 164.791 7.5298 164.705 6.54839H163.615C163.717 7.96975 164.876 8.93424 166.75 8.93424C168.76 8.93424 169.901 7.83438 169.901 6.42994C169.901 4.80554 168.351 4.28099 167.448 4.0441L166.562 3.8072C165.915 3.638 164.876 3.29958 164.876 2.36893C164.876 1.5398 165.642 0.93065 166.801 0.93065C167.857 0.93065 168.657 1.42982 168.76 2.28432Z" fill="white"/>
<path d="M172.233 8.84964C172.655 8.84964 173 8.50699 173 8.08819C173 7.6694 172.655 7.32675 172.233 7.32675C171.812 7.32675 171.467 7.6694 171.467 8.08819C171.467 8.50699 171.812 8.84964 172.233 8.84964Z" fill="white"/>
</svg>

<svg xmlns="http://www.w3.org/2000/svg" width="173" height="33" fill="#fff" xmlns:v="https://vecta.io/nano"><path d="M4.19 32.607l2.402-6.878h10.22l2.389 6.878h4.19L13.977 6.616H9.416L0 32.607h4.19zm3.552-10.178L11.6 11.337h.204l3.858 11.092h-7.92zm19.122 10.178h3.82V20.703c0-2.551 1.98-4.391 4.689-4.391.792 0 1.686.14 1.993.228v-3.629c-.383-.051-1.137-.089-1.622-.089-2.3 0-4.267 1.295-4.982 3.388h-.204v-3.097h-3.692v19.493zm21.37.393c5.532 0 9.147-4.023 9.147-10.051 0-6.066-3.616-10.089-9.147-10.089s-9.147 4.023-9.147 10.089c0 6.028 3.616 10.051 9.147 10.051zm.013-3.185c-3.615 0-5.302-3.135-5.302-6.878 0-3.731 1.686-6.904 5.302-6.904 3.59 0 5.276 3.173 5.276 6.904 0 3.744-1.686 6.878-5.276 6.878zm25.829-5.292c.013 3.312-2.466 4.886-4.612 4.886-2.364 0-3.999-1.701-3.999-4.353V13.114h-3.82v12.399c0 4.835 2.67 7.348 6.439 7.348 2.951 0 4.957-1.548 5.864-3.629h.204v3.376h3.756V13.114h-3.833v11.409zm12.785-3.49c0-3.109 1.916-4.886 4.574-4.886 2.593 0 4.165 1.688 4.165 4.518v11.942h3.82V20.208c0-4.822-2.67-7.348-6.682-7.348-2.951 0-4.88 1.358-5.787 3.427h-.243v-3.173h-3.667v19.493h3.82V21.033zm25.027 11.954c3.578 0 4.983-2.17 5.673-3.414h.319v3.033h3.731V6.616h-3.82v9.658h-.23c-.69-1.206-1.993-3.414-5.647-3.414-4.74 0-8.227 3.718-8.227 10.038 0 6.307 3.436 10.089 8.201 10.089zm.844-3.236c-3.411 0-5.187-2.982-5.187-6.891 0-3.871 1.737-6.777 5.187-6.777 3.334 0 5.123 2.703 5.123 6.777 0 4.099-1.827 6.891-5.123 6.891zM126.6 1.049h2.743v7.733h1.056V1.049h2.742V.118H126.6v.931zm9.04 3.824c0-1.134.728-1.777 1.72-1.777.946 0 1.516.592 1.516 1.624v4.061h1.005V4.653c0-1.671-.894-2.454-2.231-2.454-1.031 0-1.618.427-1.925 1.1h-.085V.118h-1.005v8.664h1.005V4.873zm8.823 4.044c1.328 0 2.299-.66 2.606-1.641l-.971-.271c-.256.677-.848 1.015-1.635 1.015-1.18 0-1.993-.757-2.04-2.149h4.748v-.423c0-2.42-1.448-3.249-2.811-3.249-1.771 0-2.947 1.388-2.947 3.384s1.159 3.333 3.05 3.333zm-2.04-3.909c.068-1.011.788-1.912 1.937-1.912 1.091 0 1.789.812 1.789 1.912h-3.726zm15.509-4.89V5.77c0 1.269-.877 2.183-2.333 2.183s-2.334-.914-2.334-2.183V.118h-1.056v5.736c0 1.777 1.337 3.08 3.39 3.08s3.389-1.303 3.389-3.08V.118h-1.056zm3.352 8.732c.421 0 .766-.343.766-.761s-.345-.761-.766-.761-.767.343-.767.761.345.761.767.761zm7.476-6.566h1.022C169.735.977 168.521 0 166.835 0c-1.67 0-2.981.964-2.981 2.42 0 1.168.851 1.861 2.214 2.25l1.073.305c.92.254 1.738.575 1.738 1.438 0 .948-.92 1.574-2.129 1.574-1.04 0-1.959-.457-2.045-1.438h-1.09c.102 1.421 1.261 2.386 3.135 2.386 2.01 0 3.151-1.1 3.151-2.504 0-1.624-1.55-2.149-2.453-2.386l-.886-.237c-.647-.169-1.686-.508-1.686-1.438 0-.829.766-1.438 1.925-1.438 1.056 0 1.856.499 1.959 1.354zm3.473 6.566c.422 0 .767-.343.767-.761s-.345-.761-.767-.761-.766.343-.766.761.345.761.766.761z"/></svg>
